X:1
P: Mor a' Cheannaich
C: from Ed Pearlman
C: arr. T. Traub 8-4-03
L: 1/8
M: 4/4
K: G
|: "G"D2 E<G B2 AE G>E "C"C>D E<C|"G"D<D E<G B>B AE G>E "D"D2 D2 :|
|: "Dm"=F>D D/D/D "G"D>E F>G|"C"E>=F E>D "Am"C>D E<C|"Dm"=F>D D/D/D "Bb"D>D F>G|"Am"A<A G>E "Dm"D2 D2 :|
